X:1
T:The Victorious Army
T:The Victorious Army
T:Henry Ernest Nichol
T:Henry Ernest Nichol (1862-1926)
T:Public Domain Courtesy of the Cyber Hymnal™
T:Public Domain Courtesy of the Cyber Hymnal™
T:Public Domain Courtesy of the Cyber Hymnal™
C:Henry Ernest Nichol
Z:Public Domain
Z:Courtesy of the Cyber Hymnal™
%%score ( 1 2 ) ( 3 4 )
L:1/8
Q:1/4=105
M:4/4
K:F
V:1 treble 
V:2 treble 
V:3 bass 
V:4 bass 
V:1
 [CF]2 D>[DE] [CF]2 D>[DE] | [CF]2 [EG]2 [FA]2 z2 | [Ec]2 [EG]2 [Ec]2 z2 | [Fc]2 [FA]2 [Fc]2 z2 | %4
w: 1.~Why are you march- ing a-|long to war?|Sol- diers true,|who are you?|
w: 2.~Who are the foes that you|fight with- al,|Ye who stand,|sword in hand?|
w: 3.~What is the sec- ret of|your great power,|Sol- diers bright,|full of might?|
w: 4.~Where is the home you are|march- ing to,|Hearts of youth,|hearts of truth?|
 [CF]2 D>[DE] [CF]2 D>[DE] | [CF]2 [EG]2 [FA]2 z2 | [Ec]2!<(! [EG]>[EG]!<)! [Fd]2 [FG]2 | %7
w: What is the cause you are|fight- ing for?|Why are you ne- ver|
w: Do you not fear in the|strife to fall,|Struck by a dead- ly|
w: Why are you fear- less in|dan- ger’s hour,|Strong with the foe to|
w: Is there a king- dom be-|yond the blue,|Where you may rest from|
 [Ec]4 z4 |"^Choir" [DE=B]2 ^A>B [DEc]2 [DEB]2 | [CEA]2 [CE]2 A4 [CE]2 | [^FA]2 ^G>A [F=B]2 [FA]2 | %11
w: sad?|O we are on- ly|rank and file, Tread-|* ing the path for|
w: blow?|Strong are the foes that|bar our way, Ma-|* ny the sins we|
w: cope?|Je- sus it is that|makes us strong, Trust-|* ing in Him we|
w: strife?|Je- sus has said that|we shall stand, Vic-|* tors of faith at|
 [DG]2 D2 G4 | [EG]2 ^F>G [EA]2 [EG]2 | F2!<(! [=FA]2 [Gc]2!<)! [D^Fd]2 | [EGe]2 G>G d2 G2 | %15
w: many a mile;|Still ev- ery face must|bear a smile, For|Je- sus has made us|
w: have to slay;|Still we shall rise and|win the day, Tho’|oft in the dust laid|
w: march a- long;|He ev- er fills our|hearts with song, Our|eyes with the light of|
w: His right hand,|Crowned in the light of|God’s own land With|joy and e- ter- nal|
 c4 x2 ||"^Refrain - All in Unison" [FA]>[GB] | [Ac]>[Bd] [Ac]>[^G=B] [Ac]2 [FA]2 | %18
w: glad.|||
w: low.|We’ve en-|list- ed in the cause vic-|
w: hope.|||
w: life.|||
 [EBc]4 [B,EG]2 [GB]>[Ac] | [EBd]2 [EBd]2 [EBe]2 [EBe]2 | c4 ([FA]2 [FAe]2) =B>c | %21
w: |||
w: tor- ious Of the|ev- er- last- ing|Lord; We * are march-|
w: |||
w: |||
!<(! d>_e!<)! d>^c [=Fd]2 [FA]2 | [DAc]4 [DGB]2 [DFA]2 | G>!<(!A G>^F!<)! [DG]2 D2 | %24
w: |||
w: ing in the ranks all glor-|ious, Re- splen-|dent with the shield and sword.|
w: |||
w: |||
 (z3/2 [Ge]>[Fd] [Ec]>[DB][CA]>[B,G]) x/ |"^Harmony" [CF]2 [CE]>[CF] [CG]2 [CF]2 | %26
w: ||
w: |* Christ is our cap-|
w: ||
w: ||
 [CE]2 [CG]2 [Ec]2 z2 | [CE]2 [CG]2 [Ec]2 z2 | F2 [FA]2 [Fc]2 z2 | [^Fd]4 [DA]4 | %30
w: ||||
w: tain, Christ our|might, So we|fight, seek- ing|right; Christ|
w: ||||
w: ||||
 [DB]>[DA] [DG]>[D^F] [EG]2"^Unison" D>E | ([A,F][G,G]) ([A,A][B,B]) [Cc]2 [A,CFA]2 | %32
w: ||
w: is lead- ing us to light In|the * all * vic- tor-|
w: ||
w: ||
 !>![B,CEG]4 [A,CF]2 z2 |] %33
w: |
w: ious ar-|
w: |
w: |
V:2
 x2 D3/2 x D3/2 x2 | x8 | x8 | x8 | x2 D3/2 x D3/2 x2 | x8 | x8 | x8 | x2 [DE]2 x4 | x4 [CE]2 x4 | %10
 x2 ^F2 x4 | x2 D2 (D2 D2) | x2 E2 x4 | ^F2 x6 | x4 F4 | (E>CD>E F>G) || x2 | x8 | x8 | x8 | %20
 ([FA]2 [FA]2) x6 | ^F2 F2 x4 | x8 | D2 D2 x/ D2 x3/2 | G4 c/ x7/2 | x8 | x8 | x8 | F2 x6 | x8 | %30
 x6 ^G,2 | x8 | x8 |] %33
V:3
 [F,A,]2 [F,B,]>[F,B,] [F,A,]2 B,>B, | [A,C]2 [G,C]2 [F,C]2 z2 | [C,B,]2 [C,B,]2 [C,B,]2 z2 | %3
 [F,A,]2 [F,C]2 [F,A,]2 z2 | [F,A,]2 [F,B,]>[F,B,] [F,A,]2 B,>B, | [A,C]2 [G,C]2 [F,C]2 z2 | %6
 [G,C]2 [G,C]>[G,C] [G,=B,]2 [G,B,]2 | (z2 !>!G,,2 !>!C,2 !>!D,2) | %8
 [E,^G,]2 [E,G,]2 [E,G,]2 [E,G,]2 | [A,,A,]2 [A,,A,]2 ([A,,A,]2 [A,,A,]2) x2 | %10
 [D,C]2 [D,C]2 [D,C]2 [D,C]2 | [G,=B,]2 [G,B,]2 ([G,B,]2 [G,B,]2) | %12
 [C,B,]2 [C,B,]2 [C,B,]2 [B,C]2 | [A,C]2 [F,C]2 [E,C]2 [D,C]2 | [G,C]2 z2 [G,=B,]4 | %15
 ([C,C]2 [B,,B,]2 [A,,A,]2) || [G,,G,]2 | [F,,F,]2 [C,,C,]2 [F,,F,]2 [C,,C,]2 | %18
 [G,,G,]2 [E,,C,]2 [G,,G,]2 [E,,C,]2 | [G,,G,]2 [C,,C,]2 [G,,G,]2 [C,,C,]2 | %20
 ([F,,F,]2 [C,,C,]2 [F,,F,]2) [_E,,=E,]2 x2 | [D,,D,]2 [D,A,C]2 [D,,D,]2 [D,A,C]2 | %22
 ([G,,G,]2 [D,,D,]2) [G,,G,]2 [A,,A,]2 | [B,,B,]2 [B,,B,]2 [=B,,G,]2 [F,G,=B,]2 | %24
 ([E,G,C]2 C,2 D,2 E,2) | [F,A,]2 [C,A,]>[C,A,] [F,A,]2 [C,A,]2 | [G,B,]2 [E,B,]2 [C,B,]2 z2 | %27
 [G,B,]2 [E,B,]2 [C,B,]2 z2 | [A,C]2 [F,C]2 [A,,C]2 z2 | [D,A,]4 [^F,,C]4 | %30
 [G,,B,]>[A,,C] [B,,B,]>[C,A,] [B,,G,]2 [^B,,F,]2 | [C,F,]2 z4 [C,F,]2 | [C,,C,]4 [F,,F,]2 z2 |] %33
V:4
 x6 B,>B, | x8 | x8 | x8 | x6 B,>B, | x8 | x8 | [C,C]4 x4 | x8 | x10 | x8 | x8 | x8 | x8 | x8 | %15
 x6 || x2 | x8 | x8 | x8 | x10 | x8 | x8 | x8 | x8 | x8 | x8 | x8 | x8 | x8 | x8 | x8 | x8 |] %33

